X:10
T:The Maid On The Green       Jig     Allan's     #10
C:Trad/Anon
B:Allan's Irish Fiddler (pub. Mozart Allen,  Glascow) date unknown
Z:FROM ALLAN'S TO NOTEWORTHY, FROM NOTEWORTHY TO ABC, MIDI AND .TXT BY VINCE
BRENNAN Dec. 2002 (HTTP://WWW.SOSYOURMOM.COM)
I:abc2nwc
M:6/8
L:1/8
K:G
d|gfge2d|Bee dBA|BGG dBG|FAA ABd|
gfge2d|Bee dBA|BGG dBA|BGG G2:|
|:d|gfg afd|gfga2a|bag agf|defg2a|
bgb agf|gfge2d|Bee dBA|BGG G2:|
